dataset/com.github.rafostar.Clapper/icon.svg

<?xml version="1.0" encoding="UTF-8" standalone="no"?>
<svg
   height="128px"
   viewBox="0 0 128 128"
   width="128px"
   version="1.1"
   id="svg4817"
   xmlns:xlink="http://www.w3.org/1999/xlink"
   xmlns="http://www.w3.org/2000/svg"
   xmlns:svg="http://www.w3.org/2000/svg">
  <defs
     id="defs4821">
    <linearGradient
       xlink:href="#linearGradient15426"
       id="linearGradient1415"
       gradientUnits="userSpaceOnUse"
       gradientTransform="matrix(0.25,0,0,0.14473685,-14.14897,181.04386)"
       x1="88.595886"
       y1="-449.39401"
       x2="536.59589"
       y2="-449.39401" />
    <linearGradient
       id="linearGradient15426">
      <stop
         id="stop15414"
         offset="0"
         style="stop-color:#333394;stop-opacity:1" />
      <stop
         style="stop-color:#5c5cc7;stop-opacity:1"
         offset="0.03571429"
         id="stop15416" />
      <stop
         id="stop15418"
         offset="0.07136531"
         style="stop-color:#333394;stop-opacity:1" />
      <stop
         style="stop-color:#333394;stop-opacity:1"
         offset="0.9285714"
         id="stop15420" />
      <stop
         id="stop15422"
         offset="0.96428573"
         style="stop-color:#5c5cc7;stop-opacity:1" />
      <stop
         id="stop15424"
         offset="1"
         style="stop-color:#333394;stop-opacity:1" />
    </linearGradient>
  </defs>
  <linearGradient
     id="a"
     gradientUnits="userSpaceOnUse"
     x1="11.999989"
     x2="115.999989"
     y1="64"
     y2="64">
    <stop
       offset="0"
       stop-color="#3d3846"
       id="stop4783" />
    <stop
       offset="0.05"
       stop-color="#77767b"
       id="stop4785" />
    <stop
       offset="0.1"
       stop-color="#5e5c64"
       id="stop4787" />
    <stop
       offset="0.899999"
       stop-color="#504e56"
       id="stop4789" />
    <stop
       offset="0.95"
       stop-color="#77767b"
       id="stop4791" />
    <stop
       offset="1"
       stop-color="#3d3846"
       id="stop4793" />
  </linearGradient>
  <linearGradient
     id="b"
     gradientUnits="userSpaceOnUse"
     x1="12"
     x2="112.041023"
     y1="60"
     y2="80.988281">
    <stop
       offset="0"
       stop-color="#77767b"
       id="stop4796" />
    <stop
       offset="0.384443"
       stop-color="#9a9996"
       id="stop4798" />
    <stop
       offset="0.720567"
       stop-color="#77767b"
       id="stop4800" />
    <stop
       offset="1"
       stop-color="#68666f"
       id="stop4802" />
  </linearGradient>
  <path
     id="rect1409"
     style="display:inline;vector-effect:none;fill:url(#linearGradient1415);stroke-width:0.25;marker:none;marker-start:none;marker-mid:none;marker-end:none;enable-background:new"
     d="M 15.999993,72 H 112 c 4.432,0 8,3.568 8,8 v 28 c 0,4.432 -3.568,8 -8,8 H 15.999993 c -4.432,0 -7.9999997,-3.568 -7.9999997,-8 V 80 c 0,-4.432 3.5679997,-8 7.9999997,-8 z" />
  <path
     id="rect1411"
     style="display:inline;vector-effect:none;fill:#4747d1;stroke-width:0.25;marker:none;marker-start:none;marker-mid:none;marker-end:none;enable-background:new"
     d="M 15.999993,46 H 112 c 4.432,0 8,3.568 8,8 v 50 c 0,4.432 -3.568,8 -8,8 H 15.999993 c -4.432,0 -7.9999997,-3.568 -7.9999997,-8 V 54 c 0,-4.432 3.5679997,-8 7.9999997,-8 z" />
  <path
     id="rect2123"
     style="fill:#3f3fcf;stroke-width:2.80351;stroke-linecap:round;stroke-linejoin:round;stroke-dashoffset:26.4;stroke-opacity:0;fill-opacity:1"
     d="M 9.99999,44 H 118 c 1.108,0 2,0.892 2,2 v 10 c 0,1.108 0,2 0,2 H 9.99999 c -1.108,0 -2,-0.892 -2,-2 V 46 c 0,-1.108 0.892,-2 2,-2 z" />
  <path
     style="fill:#ffffff;stroke:none;stroke-width:1px;stroke-linecap:butt;stroke-linejoin:miter;stroke-opacity:1"
     d="m 103.99999,44 -8,14 h -16 l 8,-14 z"
     id="path16200" />
  <path
     style="fill:#ffffff;stroke:none;stroke-width:1px;stroke-linecap:butt;stroke-linejoin:miter;stroke-opacity:1"
     d="m 71.99999,44 -8,14 h -16 l 8,-14 z"
     id="path16766" />
  <path
     id="rect31036"
     style="display:inline;fill:#2c2c81;stroke-width:2;stroke-linecap:round;stroke-linejoin:round;stroke-dashoffset:26.4;stroke-opacity:0;enable-background:new;fill-opacity:1"
     d="M 115.0293 6.9414062 C 114.89644 6.9495141 114.76269 6.9719661 114.62891 7.0078125 L 10.308594 34.958984 C 9.2383479 35.245756 8.6077597 36.337957 8.8945312 37.408203 L 11.482422 47.068359 C 11.769193 48.138605 12.861395 48.769193 13.931641 48.482422 L 118.25195 20.529297 C 119.152 20.288131 119.73443 19.476271 119.72852 18.587891 L 119.73438 18.587891 L 119.73438 13.541016 L 118.44922 13.541016 L 117.07812 8.421875 C 116.8272 7.4854099 115.9593 6.8846514 115.0293 6.9414062 z " />
  <path
     id="rect16850"
     style="fill:#4747d1;stroke-width:2.80351;stroke-linecap:round;stroke-linejoin:round;stroke-dashoffset:26.4;stroke-opacity:0"
     transform="matrix(0.96592583,-0.25881905,-0.25881905,-0.96592583,0,0)"
     d="M 2.2030643,-45.60656 H 110.20307 c 1.108,0 2,0.892 2,2 v 10 c 0,1.108 -0.892,2 -2,2 H 2.2030643 c -1.108,0 -1.99999999,-0.892 -1.99999999,-2 v -10 c 0,-1.108 0.89199999,-2 1.99999999,-2 z" />
  <path
     style="fill:#ffffff;stroke:none;stroke-width:1px;stroke-linecap:butt;stroke-linejoin:miter;stroke-opacity:1"
     d="M 104.72887,19.15337 93.377998,7.7009603 77.923185,11.842065 89.274058,23.294474 Z"
     id="path16852" />
  <path
     style="fill:#ffffff;stroke:none;stroke-width:1px;stroke-linecap:butt;stroke-linejoin:miter;stroke-opacity:1"
     d="M 73.819245,27.435579 62.468372,15.98317 47.013558,20.124275 58.364432,31.576684 Z"
     id="path16854" />
  <path
     style="fill:#ffffff;stroke:none;stroke-width:1px;stroke-linecap:butt;stroke-linejoin:miter;stroke-opacity:1"
     d="M 42.909618,35.717789 31.558745,24.26538 16.103932,28.406484 27.454805,39.858894 Z"
     id="path16856" />
  <path
     style="fill:#8080df;fill-opacity:1;stroke:none;stroke-width:1px;stroke-linecap:butt;stroke-linejoin:miter;stroke-opacity:1"
     d="m 42.909618,35.717789 10e-7,5.000001 -15.454813,4.141104 -1e-6,-5 z"
     id="path28425" />
  <path
     style="fill:#ffffff;stroke:none;stroke-width:1px;stroke-linecap:butt;stroke-linejoin:miter;stroke-opacity:1"
     d="m 39.99999,44 -8,14 h -16 l 8,-14 z"
     id="path16768" />
  <path
     style="fill:#8080df;fill-opacity:1;stroke:none;stroke-width:1px;stroke-linecap:butt;stroke-linejoin:miter;stroke-opacity:1"
     d="m 73.819249,27.435588 10e-7,5.000001 -15.454813,4.141105 -1e-6,-5.000001 z"
     id="path28564" />
  <path
     style="fill:#8080df;fill-opacity:1;stroke:none;stroke-width:1px;stroke-linecap:butt;stroke-linejoin:miter;stroke-opacity:1"
     d="m 104.72887,19.15337 1e-5,4.999999 -15.454821,4.141106 -10e-7,-5.000001 z"
     id="path28566" />
  <path
     style="display:inline;fill:#c0bfbc;stroke:none;stroke-width:1.00178px;stroke-linecap:butt;stroke-linejoin:miter;stroke-opacity:1;enable-background:new"
     d="m 7.99999,58.1 h 16 V 47.060714 a 7.2426407,7.2685073 0 0 0 -2.12132,-5.13961 L 9.99999,30 h -2 z"
     id="path2542" />
  <path
     style="display:inline;fill:#f6f5f4;stroke:none;stroke-width:1px;stroke-linecap:butt;stroke-linejoin:miter;stroke-opacity:1;enable-background:new"
     d="m 52.000007,247.28571 v 23.42857 a 1.1606451,1.1606451 30.127561 0 0 1.736486,1.00772 l 20.527021,-11.72972 a 1.1428574,1.1428574 90.000009 0 0 0,-1.98456 L 53.736493,246.27799 a 1.1606447,1.1606447 149.87245 0 0 -1.736486,1.00772 z"
     id="path12416"
     transform="translate(-1e-5,-172)" />
  <path
     id="path34849"
     style="display:inline;fill:#5e5c64;stroke-width:1.99999;stroke-linecap:round;stroke-linejoin:round;stroke-dashoffset:26.4;stroke-opacity:0;enable-background:new"
     d="m 20.99999,53.500004 a 1.5,1.5 0 0 1 -1.5,1.5 1.5,1.5 0 0 1 -1.5,-1.5 1.5,1.5 0 0 1 1.5,-1.5 1.5,1.5 0 0 1 1.5,1.5 z" />
  <path
     id="circle34931"
     style="display:inline;fill:#f6f5f4;stroke-width:1.99999;stroke-linecap:round;stroke-linejoin:round;stroke-dashoffset:26.4;stroke-opacity:0;enable-background:new"
     d="m 20.99999,52.500004 a 1.5,1.5 0 0 1 -1.5,1.5 1.5,1.5 0 0 1 -1.5,-1.5 1.5,1.5 0 0 1 1.5,-1.5 1.5,1.5 0 0 1 1.5,1.5 z" />
  <path
     id="circle36081"
     style="display:inline;fill:#5e5c64;stroke-width:1.99999;stroke-linecap:round;stroke-linejoin:round;stroke-dashoffset:26.4;stroke-opacity:0;enable-background:new"
     d="m 13.49999,53.500004 a 1.5,1.5 0 0 1 -1.5,1.5 1.5,1.5 0 0 1 -1.5,-1.5 1.5,1.5 0 0 1 1.5,-1.5 1.5,1.5 0 0 1 1.5,1.5 z" />
  <path
     id="circle36083"
     style="display:inline;fill:#f6f5f4;stroke-width:1.99999;stroke-linecap:round;stroke-linejoin:round;stroke-dashoffset:26.4;stroke-opacity:0;enable-background:new"
     d="m 13.49999,52.500004 a 1.5,1.5 0 0 1 -1.5,1.5 1.5,1.5 0 0 1 -1.5,-1.5 1.5,1.5 0 0 1 1.5,-1.5 1.5,1.5 0 0 1 1.5,1.5 z" />
  <path
     id="circle36085"
     style="display:inline;fill:#5e5c64;stroke-width:1.99999;stroke-linecap:round;stroke-linejoin:round;stroke-dashoffset:26.4;stroke-opacity:0;enable-background:new"
     d="m 13.49999,38.500004 a 1.5,1.5 0 0 1 -1.5,1.5 1.5,1.5 0 0 1 -1.5,-1.5 1.5,1.5 0 0 1 1.5,-1.5 1.5,1.5 0 0 1 1.5,1.5 z" />
  <path
     id="circle36087"
     style="display:inline;fill:#f6f5f4;stroke-width:1.99999;stroke-linecap:round;stroke-linejoin:round;stroke-dashoffset:26.4;stroke-opacity:0;enable-background:new"
     d="m 13.49999,37.500004 a 1.5,1.5 0 0 1 -1.5,1.5 1.5,1.5 0 0 1 -1.5,-1.5 1.5,1.5 0 0 1 1.5,-1.5 1.5,1.5 0 0 1 1.5,1.5 z" />
</svg>

<svg xmlns="http://www.w3.org/2000/svg" xmlns:xlink="http://www.w3.org/1999/xlink" width="128" height="128" viewBox="0 0 128 128"><defs><linearGradient xlink:href="#a" id="b" x1="88.596" x2="536.596" y1="-449.394" y2="-449.394" gradientTransform="matrix(.25 0 0 .14474 -14.149 181.044)" gradientUnits="userSpaceOnUse"/><linearGradient id="a"><stop offset="0" style="stop-color:#333394;stop-opacity:1"/><stop offset=".036" style="stop-color:#5c5cc7;stop-opacity:1"/><stop offset=".071" style="stop-color:#333394;stop-opacity:1"/><stop offset=".929" style="stop-color:#333394;stop-opacity:1"/><stop offset=".964" style="stop-color:#5c5cc7;stop-opacity:1"/><stop offset="1" style="stop-color:#333394;stop-opacity:1"/></linearGradient></defs><path d="M16 72h96c4.432 0 8 3.568 8 8v28c0 4.432-3.568 8-8 8H16c-4.432 0-8-3.568-8-8V80c0-4.432 3.568-8 8-8" style="display:inline;vector-effect:none;fill:url(#b);stroke-width:.25;marker:none;marker-start:none;marker-mid:none;marker-end:none"/><path d="M16 46h96c4.432 0 8 3.568 8 8v50c0 4.432-3.568 8-8 8H16c-4.432 0-8-3.568-8-8V54c0-4.432 3.568-8 8-8" style="display:inline;vector-effect:none;fill:#4747d1;stroke-width:.25;marker:none;marker-start:none;marker-mid:none;marker-end:none"/><path d="M10 44h108c1.108 0 2 .892 2 2v12H10c-1.108 0-2-.892-2-2V46c0-1.108.892-2 2-2" style="fill:#3f3fcf;stroke-width:2.80351;stroke-linecap:round;stroke-linejoin:round;stroke-dashoffset:26.4;stroke-opacity:0;fill-opacity:1"/><path d="m104 44-8 14H80l8-14zM72 44l-8 14H48l8-14z" style="fill:#fff;stroke:none;stroke-width:1px;stroke-linecap:butt;stroke-linejoin:miter;stroke-opacity:1"/><path d="M115.03 6.941q-.2.013-.401.067L10.309 34.959a1.995 1.995 0 0 0-1.414 2.45l2.587 9.66a1.995 1.995 0 0 0 2.45 1.413l104.32-27.953a1.99 1.99 0 0 0 1.477-1.941h.005V13.54h-1.285l-1.37-5.12a1.996 1.996 0 0 0-2.05-1.48" style="display:inline;fill:#2c2c81;stroke-width:2;stroke-linecap:round;stroke-linejoin:round;stroke-dashoffset:26.4;stroke-opacity:0;fill-opacity:1"/><path d="M2.203-45.607h108c1.108 0 2 .892 2 2v10c0 1.108-.892 2-2 2h-108c-1.108 0-2-.892-2-2v-10c0-1.108.892-2 2-2" style="fill:#4747d1;stroke-width:2.80351;stroke-linecap:round;stroke-linejoin:round;stroke-dashoffset:26.4;stroke-opacity:0" transform="rotate(-15)scale(1 -1)"/><path d="M104.729 19.153 93.378 7.701l-15.455 4.141 11.351 11.452ZM73.82 27.436 62.467 15.983l-15.454 4.141 11.35 11.453ZM42.91 35.718 31.559 24.265l-15.455 4.141 11.35 11.453Z" style="fill:#fff;stroke:none;stroke-width:1px;stroke-linecap:butt;stroke-linejoin:miter;stroke-opacity:1"/><path d="M42.91 35.718v5l-15.455 4.14v-5z" style="fill:#8080df;fill-opacity:1;stroke:none;stroke-width:1px;stroke-linecap:butt;stroke-linejoin:miter;stroke-opacity:1"/><path d="m40 44-8 14H16l8-14z" style="fill:#fff;stroke:none;stroke-width:1px;stroke-linecap:butt;stroke-linejoin:miter;stroke-opacity:1"/><path d="M73.82 27.436v5l-15.456 4.14v-5zM104.729 19.153v5l-15.455 4.141v-5z" style="fill:#8080df;fill-opacity:1;stroke:none;stroke-width:1px;stroke-linecap:butt;stroke-linejoin:miter;stroke-opacity:1"/><path d="M8 58.1h16V47.06a7.243 7.269 0 0 0-2.121-5.139L10 30H8z" style="display:inline;fill:#c0bfbc;stroke:none;stroke-width:1.00178px;stroke-linecap:butt;stroke-linejoin:miter;stroke-opacity:1"/><path d="M52 247.286v23.428a1.16 1.16 30.128 0 0 1.736 1.008l20.528-11.73a1.143 1.143 90 0 0 0-1.984l-20.528-11.73A1.16 1.16 149.872 0 0 52 247.286" style="display:inline;fill:#f6f5f4;stroke:none;stroke-width:1px;stroke-linecap:butt;stroke-linejoin:miter;stroke-opacity:1" transform="translate(0 -172)"/><path d="M21 53.5a1.5 1.5 0 0 1-1.5 1.5 1.5 1.5 0 0 1-1.5-1.5 1.5 1.5 0 0 1 1.5-1.5 1.5 1.5 0 0 1 1.5 1.5" style="display:inline;fill:#5e5c64;stroke-width:1.99999;stroke-linecap:round;stroke-linejoin:round;stroke-dashoffset:26.4;stroke-opacity:0"/><path d="M21 52.5a1.5 1.5 0 0 1-1.5 1.5 1.5 1.5 0 0 1-1.5-1.5 1.5 1.5 0 0 1 1.5-1.5 1.5 1.5 0 0 1 1.5 1.5" style="display:inline;fill:#f6f5f4;stroke-width:1.99999;stroke-linecap:round;stroke-linejoin:round;stroke-dashoffset:26.4;stroke-opacity:0"/><path d="M13.5 53.5A1.5 1.5 0 0 1 12 55a1.5 1.5 0 0 1-1.5-1.5A1.5 1.5 0 0 1 12 52a1.5 1.5 0 0 1 1.5 1.5" style="display:inline;fill:#5e5c64;stroke-width:1.99999;stroke-linecap:round;stroke-linejoin:round;stroke-dashoffset:26.4;stroke-opacity:0"/><path d="M13.5 52.5A1.5 1.5 0 0 1 12 54a1.5 1.5 0 0 1-1.5-1.5A1.5 1.5 0 0 1 12 51a1.5 1.5 0 0 1 1.5 1.5" style="display:inline;fill:#f6f5f4;stroke-width:1.99999;stroke-linecap:round;stroke-linejoin:round;stroke-dashoffset:26.4;stroke-opacity:0"/><path d="M13.5 38.5A1.5 1.5 0 0 1 12 40a1.5 1.5 0 0 1-1.5-1.5A1.5 1.5 0 0 1 12 37a1.5 1.5 0 0 1 1.5 1.5" style="display:inline;fill:#5e5c64;stroke-width:1.99999;stroke-linecap:round;stroke-linejoin:round;stroke-dashoffset:26.4;stroke-opacity:0"/><path d="M13.5 37.5A1.5 1.5 0 0 1 12 39a1.5 1.5 0 0 1-1.5-1.5A1.5 1.5 0 0 1 12 36a1.5 1.5 0 0 1 1.5 1.5" style="display:inline;fill:#f6f5f4;stroke-width:1.99999;stroke-linecap:round;stroke-linejoin:round;stroke-dashoffset:26.4;stroke-opacity:0"/></svg>
